packages/axiom-components/src/Pictogram/svgs/web-url.svg

<?xml version="1.0" encoding="UTF-8"?>
<svg width="16px" height="16px" viewBox="0 0 16 16" version="1.1" xmlns="http://www.w3.org/2000/svg" xmlns:xlink="http://www.w3.org/1999/xlink">
    <!-- Generator: Sketch 46.2 (44496) - http://www.bohemiancoding.com/sketch -->
    <title>Web URL</title>
    <desc>Created with Sketch.</desc>
    <defs></defs>
    <g id="Axiom-Icons" stroke="none" stroke-width="1" fill="none" fill-rule="evenodd">
        <g id="Web-URL" fill="#000000">
            <path d="M6.6617,11.6401 C8.0697,12.9081 10.2717,12.7141 11.6117,11.3741 L14.5817,8.4041 C16.2137,6.7721 16.4087,4.5701 15.1397,3.1621 C13.7877,1.6601 11.4717,1.6141 10.0607,3.0251 L9.9637,3.1221 C9.6707,3.4151 9.6707,3.8891 9.9637,4.1821 L9.9637,4.1821 C10.2567,4.4751 10.7317,4.4751 11.0247,4.1821 L11.0417,4.1651 C11.7467,3.4611 12.8807,3.2861 13.6907,3.8661 C14.7217,4.6051 14.8077,6.0561 13.9497,6.9141 L10.4937,10.3701 C9.7887,11.0751 8.6547,11.2501 7.8447,10.6691 C6.8137,9.9301 6.7277,8.4791 7.5857,7.6211 L7.6187,7.5891 C7.9117,7.2961 7.9117,6.8211 7.6187,6.5281 L7.6187,6.5281 C7.3257,6.2351 6.8507,6.2351 6.5577,6.5281 L6.5247,6.5611 C5.1137,7.9721 5.1597,10.2871 6.6617,11.6401" id="Path" fill-opacity="0.75"></path>
            <path d="M9.305,4.6026 C7.897,3.3346 5.695,3.5286 4.355,4.8686 L1.385,7.8386 C-0.247,9.4706 -0.442,11.6726 0.827,13.0806 C2.179,14.5826 4.495,14.6286 5.906,13.2176 L6.003,13.1206 C6.296,12.8276 6.296,12.3536 6.003,12.0606 L6.003,12.0606 C5.71,11.7676 5.235,11.7676 4.942,12.0606 L4.925,12.0776 C4.22,12.7816 3.086,12.9566 2.276,12.3766 C1.245,11.6376 1.159,10.1866 2.017,9.3286 L5.473,5.8726 C6.178,5.1676 7.312,4.9926 8.122,5.5736 C9.153,6.3126 9.239,7.7636 8.381,8.6216 L8.348,8.6536 C8.055,8.9466 8.055,9.4216 8.348,9.7146 L8.348,9.7146 C8.641,10.0076 9.116,10.0076 9.409,9.7146 L9.442,9.6816 C10.853,8.2706 10.807,5.9556 9.305,4.6026" id="Path"></path>
        </g>
    </g>
</svg>

<svg height="16" viewBox="0 0 16 16" width="16" xmlns="http://www.w3.org/2000/svg"><g fill-rule="evenodd"><path d="m6.6617 11.6401c1.408 1.268 3.61 1.074 4.95-.266l2.97-2.97c1.632-1.632 1.827-3.834.558-5.242-1.352-1.502-3.668-1.548-5.079-.137l-.097.097c-.293.293-.293.767 0 1.06.293.293.768.293 1.061 0l.017-.017c.705-.704 1.839-.879 2.649-.299 1.031.739 1.117 2.19.259 3.048l-3.456 3.456c-.705.705-1.839.88-2.649.299-1.031-.739-1.117-2.19-.259-3.048l.033-.032c.293-.293.293-.768 0-1.061-.293-.293-.768-.293-1.061 0l-.033.033c-1.411 1.411-1.365 3.726.137 5.079" fill-opacity=".75"/><path d="m9.305 4.6026c-1.408-1.268-3.61-1.074-4.95.266l-2.97 2.97c-1.632 1.632-1.827 3.834-.558 5.242 1.352 1.502 3.668 1.548 5.079.137l.097-.097c.293-.293.293-.767 0-1.06-.293-.293-.768-.293-1.061 0l-.017.017c-.705.704-1.839.879-2.649.299-1.031-.739-1.117-2.19-.259-3.048l3.456-3.456c.705-.705 1.839-.88 2.649-.299 1.031.739 1.117 2.19.259 3.048l-.033.032c-.293.293-.293.768 0 1.061.293.293.768.293 1.061 0l.033-.033c1.411-1.411 1.365-3.726-.137-5.079"/></g></svg>
